public/images/hashed/adc4dc373cf52a67fcaac7edba258d12.svg

<?xml version="1.0" encoding="UTF-8"?>
<svg width="80px" height="80px" viewBox="0 0 80 80" version="1.1" xmlns="http://www.w3.org/2000/svg" xmlns:xlink="http://www.w3.org/1999/xlink">
    <!-- Generator: Sketch 64 (93537) - https://sketch.com -->
    <title>Icon-Architecture/64/Arch_Amazon-Augmented-AI-A2I_64</title>
    <desc>Created with Sketch.</desc>
    <defs>
        <linearGradient x1="0%" y1="100%" x2="100%" y2="0%" id="linearGradient-1">
            <stop stop-color="#055F4E" offset="0%"></stop>
            <stop stop-color="#56C0A7" offset="100%"></stop>
        </linearGradient>
    </defs>
    <g id="Icon-Architecture/64/Arch_Amazon-Augmented-AI-A2I_64" stroke="none" stroke-width="1" fill="none" fill-rule="evenodd">
        <g id="Icon-Architecture-BG/64/Machine-Learning" fill="url(#linearGradient-1)">
            <rect id="Rectangle" x="0" y="0" width="80" height="80"></rect>
        </g>
        <path d="M52.8230042,66.0096899 C52.5150042,62.1266899 50.4370042,58.5686899 47.2440042,56.5556899 C45.4780042,55.4436899 43.4520042,54.8546899 41.3850042,54.8546899 C35.3750042,54.8546899 30.4290042,59.7736899 29.9470042,66.0096899 L52.8230042,66.0096899 Z M41.4060042,52.8546899 C44.8440042,52.8546899 47.6400042,50.0576899 47.6400042,46.6196899 C47.6400042,43.1816899 44.8440042,40.3846899 41.4060042,40.3846899 C37.9680042,40.3846899 35.1710042,43.1816899 35.1710042,46.6196899 C35.1710042,50.0576899 37.9680042,52.8546899 41.4060042,52.8546899 L41.4060042,52.8546899 Z M54.8620042,67.0096899 C54.8620042,67.5616899 54.4150042,68.0096899 53.8620042,68.0096899 L28.9090042,68.0096899 C28.3560042,68.0096899 27.9090042,67.5616899 27.9090042,67.0096899 C27.9090042,60.7886899 31.7550042,55.5046899 37.0750042,53.6106899 C34.7360042,52.1566899 33.1710042,49.5706899 33.1710042,46.6196899 C33.1710042,42.0786899 36.8650042,38.3846899 41.4060042,38.3846899 C45.9460042,38.3846899 49.6400042,42.0786899 49.6400042,46.6196899 C49.6400042,49.5726899 48.0730042,52.1586899 45.7330042,53.6136899 C46.6290042,53.9326899 47.4940042,54.3486899 48.3100042,54.8636899 C52.3510042,57.4106899 54.8620042,62.0646899 54.8620042,67.0096899 L54.8620042,67.0096899 Z M20.5010042,41.1576899 L21.5300042,42.8726899 L27.3880042,39.3586899 L31.0220042,41.5556899 L32.0570042,39.8446899 L28.0630042,37.4286899 L28.0640042,33.1156899 L34.5600042,29.3906899 C34.8720042,29.2126899 35.0630042,28.8816899 35.0630042,28.5236899 L35.0630042,18.9926899 L33.0630042,18.9926899 L33.0630042,27.9446899 L27.0790042,31.3756899 L21.0630042,28.0196899 L21.0630042,20.4996899 L27.0630042,16.9216899 L27.0630042,23.9926899 L29.0630042,23.9926899 L29.0630042,15.7286899 L33.4100042,13.1356899 L40.0630042,16.3356899 L40.0630042,35.9926899 L42.0630042,35.9926899 L42.0630042,15.7066899 C42.0630042,15.3226899 41.8430042,14.9716899 41.4970042,14.8056899 L33.7930042,11.1006899 C33.4890042,10.9556899 33.1360042,10.9716899 32.8460042,11.1426899 L19.5510042,19.0726899 C19.2490042,19.2536899 19.0630042,19.5796899 19.0630042,19.9316899 L19.0630042,27.5076899 L12.6920042,30.0556899 C12.3130042,30.2076899 12.0650042,30.5726899 12.0630042,30.9806899 L12,46.1586899 C11.9990042,46.5046899 12.1760042,46.8266899 12.4690042,47.0106899 L19.0630042,51.1386899 L19.0630042,57.8016899 C19.0630042,58.1156899 19.2120042,58.4126899 19.4640042,58.6006899 L24.7250042,62.5476899 L25.9250042,60.9476899 L21.0630042,57.3016899 L21.0630042,50.5846899 C21.0630042,50.4816899 21.0480042,50.3806899 21.0170042,50.2846899 L26.7930042,46.8196899 L25.7630042,45.1046899 L19.3440042,48.9556899 L14.0020042,45.6106899 L14.0250042,40.0096899 L20.2150042,36.2956899 L19.1850042,34.5806899 L14.0350042,37.6706899 L14.0600042,31.6626899 L19.5520042,29.4666899 L26.0640042,33.0996899 L26.0630042,37.8216899 L20.5010042,41.1576899 Z M51.7350042,42.3086899 C52.0780042,41.1736899 52.2520042,40.0136899 52.2520042,38.8626899 C52.2520042,33.5896899 48.7220042,28.9146899 43.6690042,27.4936899 L43.1280042,29.4196899 C47.3220042,30.5986899 50.2520042,34.4816899 50.2520042,38.8626899 C50.2520042,39.8176899 50.1070042,40.7826899 49.8210042,41.7306899 L51.7350042,42.3086899 Z M67.9980042,43.6386899 L64.2220042,53.5176899 C64.1240042,53.7756899 63.9240042,53.9806899 63.6690042,54.0856899 C63.4140042,54.1906899 63.1280042,54.1856899 62.8770042,54.0726899 L59.6360042,52.6116899 C59.4940042,52.8386899 59.3600042,53.0576899 59.2290042,53.2706899 C58.3410042,54.7176899 57.5740042,55.9686899 55.8270042,57.2876899 L54.6220042,55.6906899 C56.0670042,54.6006899 56.6780042,53.6036899 57.5250042,52.2246899 C57.7990042,51.7786899 58.0900042,51.3046899 58.4290042,50.7926899 C58.7010042,50.3846899 59.2270042,50.2336899 59.6740042,50.4346899 L62.7320042,51.8136899 L65.7510042,43.9146899 L62.5380042,42.8936899 C62.0710042,42.7446899 61.7800042,42.2806899 61.8510042,41.7956899 C62.2070042,39.3686899 62.1380042,36.8996899 61.6490042,34.4536899 C61.5530042,33.9746899 61.8180042,33.4956899 62.2750042,33.3226899 L65.4140042,32.1336899 L61.9540042,24.4136899 L58.9740042,25.9636899 C58.5380042,26.1886899 58.0080042,26.0676899 57.7150042,25.6776899 C56.2170042,23.6926899 54.4180042,21.9956899 52.3680042,20.6346899 C51.9610042,20.3636899 51.8090042,19.8376899 52.0100042,19.3906899 L53.3900042,16.3196899 L45.4000042,13.2766899 L44.2390042,15.9966899 L42.3990042,15.2116899 L43.9380042,11.6076899 C44.1490042,11.1136899 44.7140042,10.8746899 45.2140042,11.0656899 L55.0930042,14.8276899 C55.3500042,14.9266899 55.5550042,15.1256899 55.6610042,15.3806899 C55.7660042,15.6346899 55.7620042,15.9216899 55.6490042,16.1726899 L54.1760042,19.4516899 C55.8960042,20.6866899 57.4430042,22.1466899 58.7880042,23.8056899 L61.9700042,22.1496899 C62.2160042,22.0236899 62.5000042,22.0026899 62.7610042,22.0926899 C63.0210042,22.1826899 63.2320042,22.3766899 63.3440042,22.6276899 L67.6730042,32.2836899 C67.7860042,32.5346899 67.7900042,32.8216899 67.6840042,33.0766899 C67.5780042,33.3306899 67.3730042,33.5306899 67.1150042,33.6276899 L63.7620042,34.8976899 C64.1090042,37.0106899 64.1680042,39.1366899 63.9380042,41.2396899 L67.3660042,42.3286899 C67.6290042,42.4126899 67.8440042,42.5996899 67.9640042,42.8476899 C68.0840042,43.0956899 68.0950042,43.3826899 67.9980042,43.6386899 L67.9980042,43.6386899 Z" id="Amazon-Augmented-AI-A2I_Icon_64_Squid" fill="#FFFFFF"></path>
    </g>
</svg>

<svg xmlns="http://www.w3.org/2000/svg" width="80" height="80"><defs><linearGradient id="a" x1="0%" x2="100%" y1="100%" y2="0%"><stop offset="0%" stop-color="#055F4E"/><stop offset="100%" stop-color="#56C0A7"/></linearGradient></defs><g fill="none" fill-rule="evenodd"><path fill="url(#a)" d="M0 0h80v80H0z"/><path fill="#FFF" d="M52.823 66.01c-.308-3.883-2.386-7.441-5.579-9.454a10.988 10.988 0 0 0-5.859-1.701c-6.01 0-10.956 4.919-11.438 11.155h22.876ZM41.406 52.855a6.241 6.241 0 0 0 6.234-6.235 6.241 6.241 0 0 0-6.234-6.235 6.242 6.242 0 0 0-6.235 6.235 6.242 6.242 0 0 0 6.235 6.235ZM54.862 67.01a1 1 0 0 1-1 1H28.909a1 1 0 0 1-1-1c0-6.221 3.846-11.505 9.166-13.4-2.339-1.453-3.904-4.04-3.904-6.99 0-4.541 3.694-8.235 8.235-8.235 4.54 0 8.234 3.694 8.234 8.235 0 2.953-1.567 5.539-3.907 6.994.896.319 1.761.735 2.577 1.25 4.041 2.547 6.552 7.2 6.552 12.146ZM20.501 41.158l1.029 1.715 5.858-3.514 3.634 2.197 1.035-1.711-3.994-2.416.001-4.313 6.496-3.725a.997.997 0 0 0 .503-.867v-9.531h-2v8.952l-5.984 3.43-6.016-3.355V20.5l6-3.578v7.07h2V15.73l4.347-2.593 6.653 3.2v19.657h2V15.707a1 1 0 0 0-.566-.901L33.793 11.1a1.006 1.006 0 0 0-.947.042l-13.295 7.93a1.003 1.003 0 0 0-.488.859v7.576l-6.371 2.548a1 1 0 0 0-.629.925L12 46.159c-.001.346.176.668.469.852l6.594 4.128v6.663c0 .314.149.61.401.799l5.261 3.947 1.2-1.6-4.862-3.646v-6.717a.974.974 0 0 0-.046-.3l5.776-3.465-1.03-1.715-6.419 3.85-5.342-3.344.023-5.601 6.19-3.714-1.03-1.715-5.15 3.09.025-6.008 5.492-2.196 6.512 3.633-.001 4.722-5.562 3.336Zm31.234 1.15c.343-1.134.517-2.294.517-3.445 0-5.273-3.53-9.948-8.583-11.37l-.541 1.927c4.194 1.179 7.124 5.062 7.124 9.443a9.93 9.93 0 0 1-.431 2.868l1.914.578Zm16.263 1.33-3.776 9.88a.997.997 0 0 1-1.345.555l-3.241-1.461c-.142.227-.276.446-.407.659-.888 1.447-1.655 2.698-3.402 4.017l-1.205-1.597c1.445-1.09 2.056-2.087 2.903-3.466.274-.446.565-.92.904-1.432a1.002 1.002 0 0 1 1.245-.358l3.058 1.379 3.019-7.9-3.213-1.02a1 1 0 0 1-.687-1.098 21.46 21.46 0 0 0-.202-7.342 1 1 0 0 1 .626-1.131l3.139-1.19-3.46-7.72-2.98 1.55a.998.998 0 0 1-1.259-.285 21.782 21.782 0 0 0-5.347-5.043 1.001 1.001 0 0 1-.358-1.244l1.38-3.071-7.99-3.043-1.161 2.72-1.84-.785 1.539-3.604a1.001 1.001 0 0 1 1.276-.542l9.879 3.762a1 1 0 0 1 .556 1.345l-1.473 3.279a23.808 23.808 0 0 1 4.612 4.354l3.182-1.656c.246-.126.53-.147.791-.057.26.09.471.284.583.535l4.329 9.656a.998.998 0 0 1-.558 1.344l-3.353 1.27c.347 2.113.406 4.239.176 6.342l3.428 1.089a1.001 1.001 0 0 1 .632 1.31Z"/></g></svg>
